X:1
T:Balter Svens Parapolkett
S:Eliza Carthy \&amp;Nancy Kerr
D:Shape of Scrape
Z:Juergen.Gier@post.rwth-aachen.de
L:1/8
M:3/4
K:Dm 0&amp;2
z4&amp;A3^c|:(F4F)E &amp; d3efa|~E3FED&amp;g2gefd|\
^C2E2E2&amp;^c2A2A2|E4A2&amp;A4F2|G2&amp;G2&amp;&amp;A2&amp;GF&amp;&amp;A2&amp;GA|\
A3AAD&amp;B3dcB|E3FED&amp;(A6|DDE2&amp;A4)&amp;&amp;A2&amp;^c2|\
F3&amp;d3&amp;&amp;FFD&amp;efa|DE&amp;g2&amp;&amp;EFED&amp;gefg|A2AGFE&amp;a3gfe|\
EF2&amp;d3&amp;&amp;ED^C&amp;cBA|FGG2AG&amp;B3dcB|AGF2E2&amp;cBA2G2|1\
(D6&amp;(F6|D4)&amp;F4)&amp;&amp;E2&amp;A2:|2D4E2&amp;F6|A6&amp;A4A^c|:\
A4(A2&amp;e3e(3eee|A2)&amp;e^c&amp;&amp;A2(A2&amp;defg|\
A2)A2A2&amp;a2afdf|A4&amp;e2^c2&amp;&amp;A2&amp;A2|A2A2(A2&amp;e3~eed|\
A3)AAA&amp;e^cdefg|A2A4&amp;a2afdf|A4A2&amp;e2e^cAG|\
D3FFD&amp;F2dAFD|E2cAFD&amp;E2ecA2|F2dAF2&amp;F2afd2|\
A3EDE&amp;A3GFG|A2FEDA&amp;A2AGFB|A2FEDE&amp;A2AGFE|\
F2FAGF&amp;D2DFED|1A2A4&amp;D4A^c:|2A3zA2&amp;D3ED2|]
A4E2&amp;D4A2|:D3^cdf&amp;d3efa|e2e^cdA&amp;g2gefd|\
A2E2(3AB^c&amp;^c2A2A2|E4D2&amp;A4F2|A2AGBc&amp;G2GFGA|\
G4G2&amp;B3dcB|A2E3F&amp;(A6|EDE2&amp;A4)&amp;&amp;(D2&amp;A2|D3)cdf&amp;d3efa|\
e2e^cde&amp;g2gefg|d6&amp;a2agfe|[D3A3]AGF&amp;d3cBA|\
D3BAG&amp;B3dcB|AGF2A2&amp;cBA2G2|1c6&amp;F6|c4E2&amp;F4A2:|2\
c6&amp;F6|c4E2&amp;E4A^c|:A3A(3AAA&amp;e3ge^c|\
^cADAde&amp;e^cdefg|A2A2dA&amp;a2afdf|\
^c2A2G2&amp;e2^c2A2|E3^ccA&amp;e3~eed|\
^cADAde &amp; e^cdefg|A2A2dA&amp;a2afdf|\
A2AGFE&amp;e2e^cAG|D2A2D2&amp;F2dAFD|E2A2&amp;E2ec&amp;&amp;E2&amp;A2|\
D2A4&amp;F2afd2|c4A2&amp;A3GFG|ABAGAB&amp;A2AGFB|ABABAG&amp;A2AGFE|\
A3BAG&amp;D3FED|1A4E2&amp;D4A2:|2A3zA2&amp;D3ED2|]A4E2&amp;D4A2|]
